tools/download-figma-icons/icons/outlined-medium/home.svg

<svg width="24" height="24" viewBox="0 0 24 24" fill="none" xmlns="http://www.w3.org/2000/svg">
<path fill-rule="evenodd" clip-rule="evenodd" d="M12 1.5C11.616 1.5 11.2327 1.64625 10.9395 1.9395L1.93945 10.9395C1.51045 11.3677 1.3822 12.0135 1.61395 12.5745C1.84645 13.1347 2.3932 13.5 2.99995 13.5H3.74995V20.9842C3.74995 21.8137 4.42195 22.4842 5.24995 22.4842H9.0022C9.83095 22.4842 10.5022 21.8137 10.5022 20.9842V15.75H13.5022V20.9842C13.5022 21.8137 14.1735 22.4842 15.0022 22.4842H18.75C19.5779 22.4842 20.25 21.8137 20.25 20.9842V13.5H21C21.6067 13.5 22.1535 13.1347 22.386 12.5745C22.6177 12.0135 22.4895 11.3677 22.0605 10.9395L13.0605 1.9395C12.7672 1.64625 12.384 1.5 12 1.5ZM11.9999 3L20.9999 12H18.7499V20.9842H15.0022V15C15.0022 14.5852 14.6669 14.25 14.2529 14.25H9.75218C9.33818 14.25 9.00218 14.5852 9.00218 15V20.9842H5.24993V12H2.99993L11.9999 3Z" fill="black"/>
</svg>

<svg width="24" height="24" viewBox="0 0 24 24" fill="none" xmlns="http://www.w3.org/2000/svg"><path fill-rule="evenodd" clip-rule="evenodd" d="M12 1.5a1.49 1.49 0 0 0-1.06.44l-9 9A1.5 1.5 0 0 0 3 13.5h.75v7.484c0 .83.672 1.5 1.5 1.5h3.752a1.5 1.5 0 0 0 1.5-1.5V15.75h3v5.234c0 .83.671 1.5 1.5 1.5h3.748a1.5 1.5 0 0 0 1.5-1.5V13.5H21a1.5 1.5 0 0 0 1.06-2.56l-9-9A1.494 1.494 0 0 0 12 1.5ZM12 3l9 9h-2.25v8.984h-3.748V15a.75.75 0 0 0-.75-.75h-4.5a.75.75 0 0 0-.75.75v5.984H5.25V12H3l9-9Z" fill="currentColor"/></svg>
